!!!COM: Palestrina, Giovanni Perluigi da
!!!OPR: Missa Hodie Christus Natus Est
!!!OMD: Gloria
!!!OTL: Cum Sancto Spiritu
**kern	**kern	**kern	**kern	**kern	**kern	**kern	**kern
*Ibass	*Itenor	*Itenor	*Icalto	*Ibass	*Icalto	*Icant	*Icant
!Bassus	!Tenor 2	!Tenor 1	!Altus	!Bassus	!Altus	!Cantus 2	!Cantus 1
*clefF4	*clefGv2	*clefGv2	*clefG2	*clefF4	*clefG2	*clefG2	*clefG2
*k[]	*k[]	*k[]	*k[]	*k[]	*k[]	*k[]	*k[]
*G:mix	*G:mix	*G:mix	*G:mix	*G:mix	*G:mix	*G:mix	*G:mix
*M3/2	*M3/2	*M3/2	*M3/2	*M3/2	*M3/2	*M3/2	*M3/2
=110	=110	=110	=110	=110	=110	=110	=110
2C	2G	2e	2g	1.c	1.g	1.cc	1.ee
2r	2r	2r	2r	.	.	.	.
2C	2c	2e	2g	.	.	.	.
=111	=111	=111	=111	=111	=111	=111	=111
1F	1c	1f	1a	1r	1r	1r	1r
2C	2c	2e	2g	2r	2r	2r	2r
=112	=112	=112	=112	=112	=112	=112	=112
1G	1B	1d	1g	1r	1r	1r	1r
2A	2c	2c	2f#	2r	2r	2r	2r
=113	=113	=113	=113	=113	=113	=113	=113
1.G	1.d	1.B	1.g	2r	2r	2r	2r
.	.	.	.	2r	2r	2r	2r
.	.	.	.	2G	2g	2b	2dd
=114	=114	=114	=114	=114	=114	=114	=114
1r	1r	1r	1r	1c	1g	1cc	1ee
2r	2r	2r	2r	2c	2g	2cc	2ee
=115	=115	=115	=115	=115	=115	=115	=115
1r	1r	1r	1r	1F	1a	1cc	1ff
2r	2r	2r	2r	2F	2a	2cc	2ff
=116	=116	=116	=116	=116	=116	=116	=116
1r	1r	1r	1r	1c	2g	2cc	2ee
.	.	.	.	.	2e	2g	1cc
2r	2r	2r	2r	2A	2f#	2a	.
=117	=117	=117	=117	=117	=117	=117	=117
2r	2r	2r	2r	2G	2.g	2dd	2b
2r	2r	2r	2r	1d	.	1dd	1a
.	.	.	.	.	8f#	.	.
.	.	.	.	.	8e	.	.
2D	2d	2d	2a	.	2f#	.	.
=118	=118	=118	=118	=118	=118	=118	=118
1G	1B	1d	1g	1.G	1.g	1.dd	1.b
2G	2B	2d	2g	.	.	.	.
=119	=119	=119	=119	=119	=119	=119	=119
1C	1c	1e	1g	1r	1r	1r	1r
2C	2e	2c	2g	2r	2r	2r	2r
=120	=120	=120	=120	=120	=120	=120	=120
1G	1d	2B	2g	1r	1r	1r	1r
.	.	2B	2d	.	.	.	.
2E	2g	2c	2e	2r	2r	2r	2r
=121	=121	=121	=121	=121	=121	=121	=121
2D	2f	2.d	2a	2r	2r	2r	1r
1A	1e	.	1a	2r	2r	2r	.
.	.	4c#	.	.	.	.	.
.	.	2c#	.	2A	2a	2a	2r
=122	=122	=122	=122	=122	=122	=122	=122
1D	1d	2d	2a	1d	1f#	1a	2dd
.	.	2r	2r	.	.	.	2.dd
2D	2d	2d	2a	2d	2f#	2a	.
.	.	.	.	.	.	.	4dd
=123	=123	=123	=123	=123	=123	=123	=123
1G	1B	1d	1g	1G	1g	1b	2dd
.	.	.	.	.	.	.	1gg
2G	2B	2d	2g	2G	2g	2dd	.
=124	=124	=124	=124	=124	=124	=124	=124
1C	2c	1e	2g	2c	1.g	1cc	2ee
.	2G	.	1g	1c	.	.	1ee
2C	[2G	2c	.	.	.	4g	.
.	.	.	.	.	.	4a	.
=125	=125	=125	=125	=125	=125	=125	=125
2G	4G]	2d	2g	1.B	1g	4b	1.dd
.	4A	.	.	.	.	4cc	.
1G	2B	1d	1g	.	.	2dd	.
.	2B	.	.	.	2g	2gg	.
=126	=126	=126	=126	=126	=126	=126	=126
2C	2G	2e	2g	1.c	1.g	1.ee	1.cc
1C	2.G	1c	1g	.	.	.	.
.	4A	.	.	.	.	.	.
=127	=127	=127	=127	=127	=127	=127	=127
1.G	1.B	1.d	1.g	1.G	1.g	1.dd	1.b
==	==	==	==	==	==	==	==
*-	*-	*-	*-	*-	*-	*-	*-
!!!CDT: 1525/^1526/-1594/2/2
!!!OCY: Italia
!!!AGN: Mass (Parody)
!!!AST: renaissance, vocal
!!!ASW: Motet 1575 (Palestrina)
!!!PWK: Masses, Book 8vce
!!!RNB: Cadence finals: C,D
!!!YOR: Le Opere Complete, v. 30, p. 59
!!!YOO: Rome, Italy: Fratelli Scalera
!!!END: 1992//
!!!EED: John Miller
!!!YEC: Copyright 2000, John Miller
!!!YEN: United States of America
!!!YEM: Rights to all derivative electronic formats reserved.
!!!YEM: Refer to licensing agreement for further details.
!!!YEM: This file must be accompanied by the licensing agreement.
!!!YEM: A copy of the licensing agreement may be found at http://www.music-cog.ohio-state.edu/HumdrumDatabases/Palestrina/license.txt
!!!EMD: converted to Humdrum by Bret Aarden
